dist/svgs/crypto-icons/icons/bc.svg

<?xml version="1.0" encoding="UTF-8" standalone="yes"?>
<svg xmlns="http://www.w3.org/2000/svg" xmlns:xlink="http://www.w3.org/1999/xlink" width="512px" height="512px" viewBox="0 0 384 384" version="1.1">
  <g id="surface1">
    <path style=" stroke:none;fill-rule:nonzero;fill:rgb(0%,0%,0%);fill-opacity:1;" d="M 15.246094 6.148438 C 15.246094 6.148438 61.050781 17.945312 61.050781 85.960938 L 61.050781 291.210938 C 61.050781 371.53125 15.246094 376.148438 15.246094 376.148438 L 15.246094 382.984375 L 90.101562 379.394531 L 90.101562 3.585938 L 15.246094 0 Z M 301.25 91.515625 C 302.273438 146.089844 280.226562 167.394531 280.226562 167.394531 C 280.226562 167.394531 334.320312 149.960938 333.289062 87.925781 C 332.265625 25.890625 259.203125 9.996094 259.203125 9.996094 C 259.203125 9.996094 300.222656 36.941406 301.25 91.515625 Z M 296.257812 187.644531 C 296.257812 187.644531 328.628906 216.460938 330.1875 277.804688 C 331.757812 339.148438 296.257812 369.398438 296.257812 369.398438 C 296.257812 369.398438 364.566406 350.171875 363.796875 277.113281 C 363.027344 204.054688 296.257812 187.644531 296.257812 187.644531 Z M 296.257812 187.644531 "/>
    <path style=" stroke:none;fill-rule:nonzero;fill:rgb(0%,0%,0%);fill-opacity:1;" d="M 274.589844 200.972656 C 262.285156 190.722656 227.417969 178.929688 227.417969 178.929688 C 227.417969 178.929688 250.492188 167.394531 261 150.730469 C 271.511719 134.066406 279.714844 103.5625 272.027344 71.519531 C 264.335938 39.472656 236.136719 7.429688 203.324219 2.816406 C 170.511719 -1.800781 156.585938 3.585938 116.761719 4.097656 L 116.761719 379.050781 C 116.761719 379.050781 177.175781 383.496094 209.734375 383.238281 C 242.289062 382.984375 292.277344 360.679688 301.503906 299.925781 C 310.730469 239.171875 286.890625 211.230469 274.589844 200.972656 Z M 150.773438 35.375 C 156.667969 29.734375 187.171875 19.734375 216.140625 39.734375 C 245.109375 59.730469 252.625 118.261719 228.703125 149.367188 C 204.777344 180.46875 145.132812 172.265625 145.132812 172.265625 C 145.132812 172.265625 144.875 41.011719 150.773438 35.375 Z M 270.058594 301.636719 C 256.214844 355.128906 214.175781 356.671875 192.125 355.8125 C 170.082031 354.957031 148.886719 355.296875 146.496094 293.261719 C 144.105469 231.226562 145.128906 198.070312 145.128906 198.070312 C 145.128906 198.070312 210.753906 195.503906 233.144531 205.25 C 255.53125 214.992188 283.902344 248.144531 270.058594 301.636719 Z M 270.058594 301.636719 "/>
  </g>
</svg>

<svg xmlns="http://www.w3.org/2000/svg" viewBox="0 0 384 384"><path d="M15.246 6.148s45.805 11.797 45.805 79.813v205.25c0 80.32-45.805 84.937-45.805 84.937v6.836l74.856-3.59V3.587L15.246 0zM301.25 91.516c1.023 54.574-21.023 75.879-21.023 75.879s54.093-17.434 53.062-79.47c-1.023-62.034-74.086-77.929-74.086-77.929s41.02 26.945 42.047 81.52zm-4.992 96.129s32.37 28.816 33.93 90.16c1.57 61.343-33.93 91.593-33.93 91.593s68.308-19.226 67.539-92.285c-.77-73.058-67.54-89.468-67.54-89.468zm0 0"/><path d="M274.59 200.973c-12.305-10.25-47.172-22.043-47.172-22.043s23.074-11.535 33.582-28.2c10.512-16.664 18.715-47.167 11.027-79.21-7.691-32.047-35.89-64.09-68.703-68.704-32.812-4.617-46.738.77-86.562 1.282V379.05s60.414 4.445 92.972 4.187c32.555-.254 82.543-22.558 91.77-83.312 9.226-60.754-14.613-88.696-26.914-98.953zM150.773 35.375c5.895-5.64 36.399-15.64 65.368 4.36 28.968 19.995 36.484 78.527 12.562 109.632-23.926 31.102-83.57 22.899-83.57 22.899s-.258-131.254 5.64-136.891zM270.06 301.637c-13.844 53.492-55.883 55.035-77.934 54.175-22.043-.855-43.238-.515-45.629-62.55-2.39-62.035-1.367-95.192-1.367-95.192s65.625-2.566 88.016 7.18c22.386 9.742 50.757 42.895 36.914 96.387zm0 0"/></svg>
